X:1
T:Hallingdalsk Skjemtevise
T:Hallingdalsk Skjemtevise
T:Norsk Folkem.
T:Ukjent
C:Ukjent
%%score [ 1 2 3 4 ]
L:1/8
Q:1/4=92
M:6/8
K:F
V:1 treble-8 nm="T1"
V:2 treble-8 nm="T2"
V:3 bass nm="B1"
V:4 bass nm="B2"
V:1
!mf!"^All.tto marcato" e | (f>e) f a2 a | (g>e) f (d>e) ^c | e2 f d3/2 e/ ^c | A3 A2!f! e | %5
w: Aa|al- * drig er der|vær- * re te, _ enn|en for- raa- san- de|Bon- ne; aa|
 (f>e) f a2 a | (g>e) f (d>e) ^c | e2 f d3/2 e/ ^c | A3 A2 ||!ff! (e/f/) | (d>e) ^c (e>g) f | %11
w: Bei- * nan upp aa|Hu- * ve ne', _ re-|gje- rer værr' enn den|Von- ne.|I _|Hal- * ling- dal _ paa|
 (d>e) ^c e3/2 g/ f | d2 ^c e2 f | d2 e !>!^c !>!A z |!p! A3 (GE) F | D3!<(! A2 ^c!<)! | %16
w: Træ- * gaars- slet- ta der|bur en Man, kan|gjö- ra Got- ta:|surt Øl _ og|Mjö, su- re|
!f! d3/2 e/ f !>!^c !>!d |] %17
w: Pri- man den ha- ra!|
V:2
!mf! ^c | d2 d d2 d | d2 ^c A2 A | A2 A A3/2 =B/ G | A3 A2!f! =c | c2 c f2 f | e2 d A2 A | %7
w: Aa|al- drig er der|vær- re te, enn|en for- raa- san- de|Bon- ne; aa|Bei- nan upp aa|Hu- ve ne', re-|
 ^c2 d A3/2 =B/ ^G | A3 A2 ||!ff! A | A2 A A2 A | A2 A A3/2 A/ A | A2 A A2 F | F2 G !>!A !>!A z | %14
w: gje- rer værr' enn den|Von- ne.|I|Hal- ling- dal paa|Træ- gaars- slet- ta der|bur en Man, kan|gjö- ra Got- ta:|
!p! A3 (GE) F | D3!<(! F2 G!<)! |!f! A3/2 ^c/ d !>!A !>!A |] %17
w: surt Øl _ og|Mjö, su- re|Pri- man den ha- ra!|
V:3
!mf! A, | A,2 A, A,2 A, | B,2 A, A, G,2 | G,2 F, A,3/2 _A,/ E, | ^C,3 A,2!f! B, | A,2 C C2 C | %6
w: Aa|al- drig er der|vær- re te, enn|en for- raa- san- de|Bon- ne; aa|Bei- nan upp aa|
 (B,>G,) A, F,2 G, | A,2 A, A,3/2 _A,/ E, | ^C,3 A,2 ||!ff! (G,/A,/) | (F,>G,) E, (G,>B,) A, | %11
w: Hu- * ve ne', re-|gje- rer værr' enn den|Von- ne.|I _|Hal- * ling- dal _ paa|
 (F,>G,) E, G,3/2 B,/ A, | A,2 G, E,2 D, | D,2 D, !>!E, !>!^C, z |!p! A,3 (G,E,) F, | %15
w: Træ- * gaars- slet- ta der|bur en Man, kan|gjö- ra Got- ta:|surt Øl _ og|
 D,3!<(! D,2 A,!<)! |!f! A,3/2 G,/ F, !>!E, !>!F, |] %17
w: Mjö, su- re|Pri- man den ha- ra!|
V:4
!mf! A,, | D,2 D, F,2 F, | G,2 A, F,2 E, | ^C,2 D, F,3/2 E,/ E, | A,,3 A,2!f! G, | F,2 A, C2 C, | %6
w: Aa|al- drig er der|vær- re te, enn|en for- raa- san- de|Bon- ne; aa|Bei- nan upp aa|
 ^C,2 D, F,2 E, | G,2 F, F,3/2 E,/ E, | A,,3 A,,2 ||!ff! A,, | A,,2 A,, A,,2 A,, | %11
w: Hu- ve ne', re-|gje- rer værr' enn den|Von- ne.|I|Hal- ling- dal paa|
 A,,2 A,, A,,3/2 A,,/ A,, | F,2 E, ^C,2 D, | B,,2 B,, !>!A,, !>!A,, z |!p! A,3 (G,E,) F, | %15
w: Træ- gaars- slet- ta der|bur en Man, kan|gjö- ra Got- ta:|surt Øl _ og|
 D,3!<(! D,2 E,!<)! |!f! F,3/2 E,/ D, !>!A,, !>!D, |] %17
w: Mjö, su- re|Pri- man den ha- ra!|

